symbolic/24x24/actions/code-function.svg

<svg xmlns="http://www.w3.org/2000/svg" width="24" height="24"><defs><style id="current-color-scheme" type="text/css"></style></defs><path style="fill:currentColor;color:#323a41" d="M3 4v2H1v2h1v2h2v2h4v-2H6V6h2V4zm6 0v8h6V4z" transform="translate(4 4)"/></svg>

<svg xmlns="http://www.w3.org/2000/svg" width="24" height="24" version="1.1">
 <defs>
  <style id="current-color-scheme" type="text/css">
   .ColorScheme-Text { color:#323a41; } .ColorScheme-Highlight { color:#4285f4; } .ColorScheme-NeutralText { color:#ff9800; } .ColorScheme-PositiveText { color:#4caf50; } .ColorScheme-NegativeText { color:#f44336; }
  </style>
 </defs>
 <g transform="translate(4,4)">
  <path style="fill:currentColor" class="ColorScheme-Text" d="M 3,4 V 6 H 1 V 8 H 2 V 10 H 4 V 12 H 8 V 10 H 6 V 6 H 8 V 4 Z M 9,4 V 12 H 15 V 4 Z"/>
 </g>
</svg>
